X:1
T:Walzer G
T:Hanny Christen. Bd.3 Appenzell. S.318 (wz03771) orig. G-Dur
M:3/4
L:1/8
K:G
"G"B2 d2 g2 | "Am"A2c2 e2 | "G"G2 B2 d2 | gB d3 G | "D7"F2 A2 c2 | ac d3 F | "G"GB dg fa | gf fe dc | 
B2 d2 g2 | "Am"A2c2 e2 | "G"G2 B2 d2 | gB d3 G | "D7"F2 A2 c2 | fe ed cf | "G"g3 d ef | g6 :| 
|: "C"c2 ea ce | a3 g ec | "G"B2 dg Bd | g3 e dB | "D7"A2 cf Ac | f3 e dc | "G"Bd gb fa | gd Bg dB | 
   "C"c2 ea ce | a3 g ec | "G"B2 dg Bd | g3 e dB | "D7"A2 ce Ac | f3 d ef | "G"g3 d ef | g6 :| 

